X: 9
T: Cameronian, The
Z: John E Roche
S: https://thesession.org/tunes/284#setting47664
R: reel
M: 4/4
L: 1/8
K: Dmaj
dB|:A z FA DAFA|GE E/E/E G2 FG|A/B/A FA DAFA|GBAG FD E/F/G|
AF F/F/F dFAF|GE E/E/E GBdB|A/B/A FA DAFA|1 GBAG FDDB:|2 GBAG FD E/F/G||
|:Addc d3 A|B/c/d ef gfed|c/B/A eA fAeA|B/c/d ef gfeg|
faeg faeg|fdec defg|a/g/f g/f/e fdec|dBAG FDDB:|

